packages/amis-editor-core/src/icons/up-btn.svg

<?xml version="1.0" encoding="UTF-8"?>
<svg width="45" height="45" viewBox="0 0 28 29" version="1.1" xmlns="http://www.w3.org/2000/svg" xmlns:xlink="http://www.w3.org/1999/xlink">
    <defs>
        <linearGradient x1="50%" y1="0%" x2="50%" y2="100%" id="linearGradient-1">
            <stop stop-color="#0752E9" offset="0%"></stop>
            <stop stop-color="#2468F2" offset="100%"></stop>
        </linearGradient>
        <path d="M8,-1.58095759e-13 L8.33485734,0.275662364 C11.9389545,3.24263915 13.6788864,7.6344407 13.4103546,11.9628161 C15.0020327,13.1610298 16,14.9815114 16,17.3137085 C16,19.3041348 15.2730944,21.1247832 14.0702683,22.5246686 L13.3504389,20.3650252 C12.9420968,19.1399988 11.7956802,18.3137085 10.504389,18.3137085 L10.504389,18.3137085 L5.49561099,18.3137085 C4.20431977,18.3137085 3.05790324,19.1399988 2.6495611,20.3650252 L2.6495611,20.3650252 L1.92973167,22.5246686 C0.72690556,21.1247832 0,19.3041348 0,17.3137085 C0,14.9815114 0.997967274,13.1610298 2.59015859,11.9618585 C2.32568673,7.70916757 3.99987617,3.38808619 7.49736414,0.415994723 C7.55292404,0.368781094 7.60885192,0.322002214 7.66514266,0.275662364 L8,-1.58095759e-13 Z" id="path-2"></path>
        <filter x="-75.0%" y="-75.0%" width="250.0%" height="250.0%" filterUnits="objectBoundingBox" id="filter-4">
            <feGaussianBlur stdDeviation="7" in="SourceGraphic"></feGaussianBlur>
        </filter>
        <radialGradient cx="69.9864045%" cy="19.3190864%" fx="69.9864045%" fy="19.3190864%" r="49.554045%" gradientTransform="translate(0.699864,0.193191),scale(1.000000,0.710332),rotate(140.132239),translate(-0.699864,-0.193191)" id="radialGradient-5">
            <stop stop-color="#FFFFFF" offset="0%"></stop>
            <stop stop-color="#FFFFFF" stop-opacity="0" offset="100%"></stop>
        </radialGradient>
        <linearGradient x1="50%" y1="0%" x2="50%" y2="100%" id="linearGradient-6">
            <stop stop-color="#0752E9" offset="0%"></stop>
            <stop stop-color="#2468F2" offset="100%"></stop>
        </linearGradient>
        <circle id="path-7" cx="3" cy="2.5" r="2.5"></circle>
        <filter x="-100.0%" y="-100.0%" width="300.0%" height="300.0%" filterUnits="objectBoundingBox" id="filter-9">
            <feGaussianBlur stdDeviation="2" in="SourceGraphic"></feGaussianBlur>
        </filter>
        <radialGradient cx="77.9184885%" cy="13.5894205%" fx="77.9184885%" fy="13.5894205%" r="45.8821566%" id="radialGradient-10">
            <stop stop-color="#FFFFFF" offset="0%"></stop>
            <stop stop-color="#FFFFFF" stop-opacity="0" offset="100%"></stop>
        </radialGradient>
    </defs>
    <g id="向上icon-1" stroke="none" stroke-width="1" fill="none" fill-rule="evenodd">
        <g id="向上icon" transform="translate(0.000000, -5.000000)">
            <path d="M14,5 C21.7319865,5 28,11.2680135 28,19 C28,22.7283288 26.5426087,26.1162657 24.1664382,28.6251986 C23.0022105,29.4892032 21.5607568,30 20,30 C19.004881,30 18.0582609,29.792352 17.201105,29.4180215 C16.5563567,30.8868791 15.560043,32.2279589 14.2267254,33.3069547 L14.1139817,33.3969051 L14.1139817,33.3969051 L14,33.4852814 C12.5554271,32.3811976 11.481211,30.9722174 10.798602,29.4174047 C9.94246924,29.7921918 8.99550272,30 8,30 C6.43924325,30 4.99778949,29.4892032 3.83369037,28.6256612 C1.45739128,26.1162657 0,22.7283288 0,19 C0,11.2680135 6.2680135,5 14,5 Z" id="形状结合" fill="url(#linearGradient-1)"></path>
            <g id="编组" transform="translate(6.000000, 0.500000)">
                <g id="编组-2" transform="translate(0.000000, 6.000000)">
                    <mask id="mask-3" fill="white">
                        <use xlink:href="#path-2"></use>
                    </mask>
                    <use id="形状结合" fill="#F2F2FF" xlink:href="#path-2"></use>
                    <circle id="椭圆形" fill="#2468F2" filter="url(#filter-4)" mask="url(#mask-3)" cx="19" cy="-2" r="14"></circle>
                    <path d="M8,-1.58095759e-13 L8.33485734,0.275662364 C11.9389545,3.24263915 13.6788864,7.6344407 13.4103546,11.9628161 C15.0020327,13.1610298 16,14.9815114 16,17.3137085 C16,19.3041348 15.2730944,21.1247832 14.0702683,22.5246686 L13.3504389,20.3650252 C12.9615416,19.1983334 11.9031891,18.393307 10.6878096,18.3192834 L10.504389,18.3137085 L5.49561099,18.3137085 C4.26580983,18.3137085 3.16741428,19.0631781 2.71285255,20.1927801 L2.6495611,20.3650252 L1.92973167,22.5246686 C0.72690556,21.1247832 0,19.3041348 0,17.3137085 C0,14.9815114 0.997967274,13.1610298 2.59015859,11.9618585 C2.32568673,7.70916757 3.99987617,3.38808619 7.49736414,0.415994723 L8,-1.58095759e-13 Z M8,0.647 L7.82113944,0.797005951 C4.6328703,3.50632978 2.92862662,7.46866622 3.07114107,11.5586836 L3.08919451,11.9308238 L3.10589557,12.1993758 L2.89096515,12.3612523 C1.35403823,13.5188008 0.5,15.2259442 0.5,17.3137085 C0.5,18.7039882 0.879229326,20.0348601 1.57662743,21.1881371 L1.755,21.468 L2.18024186,20.1925739 L2.24900049,20.0061219 C2.75585704,18.7465655 3.94499442,17.8975806 5.29238155,17.819581 L5.49561099,17.8137085 L10.5195789,17.8139393 L10.7182061,17.8202082 C12.0764884,17.9029354 13.2602339,18.7663014 13.7583446,20.0245301 L13.824784,20.2069215 L14.245,21.468 L14.2568144,21.4510716 C15.0028002,20.3258162 15.4353142,19.0138746 15.4932959,17.6334339 L15.5,17.3137085 C15.5,15.3208691 14.7218431,13.6748072 13.3148936,12.5233865 L13.1096395,12.3622787 L12.8946514,12.2004359 L12.911314,11.9318557 C13.170173,7.75939312 11.5024183,3.68816552 8.30331223,0.903978758 L8,0.647 Z" id="形状结合" fill-opacity="0.7" fill="url(#radialGradient-5)" mask="url(#mask-3)"></path>
                </g>
                <g id="编组-4" transform="translate(5.000000, 11.313708)">
                    <mask id="mask-8" fill="white">
                        <use xlink:href="#path-7"></use>
                    </mask>
                    <use id="椭圆形" fill="url(#linearGradient-6)" xlink:href="#path-7"></use>
                    <rect id="矩形" fill="#2468F2" filter="url(#filter-9)" mask="url(#mask-8)" x="3" y="-3" width="6" height="6"></rect>
                </g>
                <path d="M8,11.3137085 C9.38071187,11.3137085 10.5,12.4329966 10.5,13.8137085 C10.5,15.1944204 9.38071187,16.3137085 8,16.3137085 C6.61928813,16.3137085 5.5,15.1944204 5.5,13.8137085 C5.5,12.4329966 6.61928813,11.3137085 8,11.3137085 Z M8,11.8137085 C6.8954305,11.8137085 6,12.709139 6,13.8137085 C6,14.918278 6.8954305,15.8137085 8,15.8137085 C9.1045695,15.8137085 10,14.918278 10,13.8137085 C10,12.709139 9.1045695,11.8137085 8,11.8137085 Z" id="椭圆形" fill-opacity="0.7" fill="url(#radialGradient-10)"></path>
            </g>
        </g>
    </g>
</svg>

<svg width="45" height="45" viewBox="0 0 28 29" xmlns="http://www.w3.org/2000/svg" xmlns:xlink="http://www.w3.org/1999/xlink"><defs><radialGradient cx="69.986%" cy="19.319%" fx="69.986%" fy="19.319%" r="49.554%" gradientTransform="scale(-1 -.71033) rotate(-39.868 -.641 1.89)" id="e"><stop stop-color="#FFF" offset="0%"/><stop stop-color="#FFF" stop-opacity="0" offset="100%"/></radialGradient><radialGradient cx="77.918%" cy="13.589%" fx="77.918%" fy="13.589%" r="45.882%" id="j"><stop stop-color="#FFF" offset="0%"/><stop stop-color="#FFF" stop-opacity="0" offset="100%"/></radialGradient><linearGradient x1="50%" y1="0%" x2="50%" y2="100%" id="a"><stop stop-color="#0752E9" offset="0%"/><stop stop-color="#2468F2" offset="100%"/></linearGradient><linearGradient x1="50%" y1="0%" x2="50%" y2="100%" id="g"><stop stop-color="#0752E9" offset="0%"/><stop stop-color="#2468F2" offset="100%"/></linearGradient><filter x="-75%" y="-75%" width="250%" height="250%" filterUnits="objectBoundingBox" id="c"><feGaussianBlur stdDeviation="7" in="SourceGraphic"/></filter><filter x="-100%" y="-100%" width="300%" height="300%" filterUnits="objectBoundingBox" id="h"><feGaussianBlur stdDeviation="2" in="SourceGraphic"/></filter><circle id="f" cx="3" cy="2.5" r="2.5"/><path d="m8 0 .335.276a13.981 13.981 0 0 1 5.075 11.687c1.592 1.198 2.59 3.019 2.59 5.35a7.97 7.97 0 0 1-1.93 5.212l-.72-2.16a3 3 0 0 0-2.846-2.051H5.496a3 3 0 0 0-2.846 2.051l-.72 2.16A7.969 7.969 0 0 1 0 17.314c0-2.332.998-4.153 2.59-5.352A13.977 13.977 0 0 1 7.665.276L8 0Z" id="b"/></defs><g fill="none" fill-rule="evenodd"><path d="M14 5c7.732 0 14 6.268 14 14 0 3.728-1.457 7.116-3.834 9.625A6.967 6.967 0 0 1 20 30a6.976 6.976 0 0 1-2.799-.582 10.339 10.339 0 0 1-2.974 3.889l-.113.09-.114.088a10.34 10.34 0 0 1-3.201-4.068A6.963 6.963 0 0 1 8 30c-1.56 0-3.002-.51-4.166-1.374A13.954 13.954 0 0 1 0 19C0 11.268 6.268 5 14 5Z" fill="url(#a)" transform="translate(0 -5)"/><g transform="translate(6 1.5)"><mask id="d" fill="#fff"><use xlink:href="#b"/></mask><use fill="#F2F2FF" xlink:href="#b"/><circle fill="#2468F2" filter="url(#c)" mask="url(#d)" cx="19" cy="-2" r="14"/><path d="m8 0 .335.276a13.981 13.981 0 0 1 5.075 11.687c1.592 1.198 2.59 3.019 2.59 5.35a7.97 7.97 0 0 1-1.93 5.212l-.72-2.16a3 3 0 0 0-2.662-2.046l-.184-.005H5.496a3 3 0 0 0-2.783 1.879l-.063.172-.72 2.16A7.969 7.969 0 0 1 0 17.314c0-2.332.998-4.153 2.59-5.352A13.977 13.977 0 0 1 7.497.416L8 0Zm0 .647-.179.15a13.472 13.472 0 0 0-4.75 10.762l.018.372.017.268-.215.162C1.354 13.52.5 15.226.5 17.314c0 1.39.38 2.72 1.077 3.874l.178.28.425-1.275.069-.187a3.5 3.5 0 0 1 3.043-2.186l.204-.006h5.024l.198.006a3.5 3.5 0 0 1 3.04 2.205l.067.182.42 1.261.012-.017a7.459 7.459 0 0 0 1.236-3.818l.007-.32c0-1.992-.778-3.638-2.185-4.79l-.205-.16-.215-.163.016-.268A13.478 13.478 0 0 0 8.303.904L8 .647Z" fill-opacity=".7" fill="url(#e)" mask="url(#d)"/></g><g transform="translate(11 6.814)"><mask id="i" fill="#fff"><use xlink:href="#f"/></mask><use fill="url(#g)" xlink:href="#f"/><path fill="#2468F2" filter="url(#h)" mask="url(#i)" d="M3-3h6v6H3z"/></g><path d="M8 11.314a2.5 2.5 0 1 1 0 5 2.5 2.5 0 0 1 0-5Zm0 .5a2 2 0 1 0 0 4 2 2 0 0 0 0-4Z" fill-opacity=".7" fill="url(#j)" transform="translate(6 -4.5)"/></g></svg>
